X:1
T:Title
%%score [ 1 2 3 4 ]
L:1/8
Q:1/4=60
M:3/4
K:B
V:1 treble nm="Soprano"
V:2 treble nm="Alto"
V:3 treble-8 nm="Tenor"
V:4 bass nm="Bass"
V:1
!mf!"^Très modéré soutenu et expressif" z2!>(! (!tenuto!F4!>)! |!p! GG FF GG | F4)!<(! (F2 | %3
w: Dieu!|qu'il la fait bon re- gar-|der La|
 GG cc!<)!!>(! AF!>)! | F2 F2) z2 |!p! (F (3(E/F/)E/ F2) (EF/E/ | D/E/F- F4) | (3(FFG FF (3EFE | %8
w: gra- ci- eu- se bonne et|bel- le;|Pour les _ gran biens que sont en|el- * le _|Chas- cun est prest de la _ _|
 D/E/F-) F2- !breath!F!<(!(F | DF GG AA!<)! |!mf! B4) (3(BcB | %11
w: loü- * er. _ _ Qui|se pour- roit d'el- le las-|ser? Tous- * *|
 c) (3(B/c/B/ c) (3(B/c/B/ c) (3(B/c/B/ |!p! c2 G) z (c2 | ed cf e (3d/e/d/ | %14
w: jours sa _ _ beau- té _ _ re- nou- * *|vel- le. Dieu|qu'il la fait bon re- gar- * *|
 c2) (!tenuto!c2!>(! AB |!p! G=A!>)!!<(! F2 G2!<)! |!>(! G2!>)! F4) | %17
w: der, La gra- ci-|eu- se bonne et|bel- le!|
!pp!!pp!!p! F>!<(!(!tenuto!D F)!<)!D/!<(!(!tenuto!D/ F>)!<)!!<(!(F!<)! |!p! A4)"^cresc." (A2 | %19
w: Par de ça, ne de là, la|mer Ne|
 G2 FG (3AFA | c2 A)(c fc |!mf! Bc f(3c/d/c/ Bc |!p! (c2 B2)) (!tenuto!F!tenuto!F | %23
w: scay da- me ne da- moi-|sel- le Qui soit en|tous _ bien _ _ _ par- fais|tel- le. C'est ung|
!<(! !tenuto!F2 !tenuto!F!tenuto!F!<)! !tenuto!F!>(! (F/G/)!>)! |!p! F4)"^Plus lent" (F2 | %25
w: son- ge que d'i pen- *|ser: Dieu!|
 GG FF GG |"^più"!p! F2) (!tenuto!c4 |!pp! e (3d/e/d/ cf ed | !fermata!c6) |] %29
w: qu'il la fait bon re- gar-|der! Dieu!|qu'il la _ _ fait bon re- gar-|der!|
V:2
!mf! z2!>(! (!tenuto!C4!>)! |!p! E (3D/E/D/ CF E (3D/E/D/ | C4)!<(! (C2 | %3
w: Dieu!|qu'il la _ _ fait bon re- gar- * *|der La|
 E (E/F/) G!<)! (3F/G/F/!>(! ED!>)! | C2 C2) z2 |!p! (=D (3(=C/D/)C/ D2) (CD/C/ | B,/^C/^D- D4) | %7
w: gra- ci- * eu- se _ _ bonne et|bel- le;|Pour les _ gran biens que sont en|el- * le _|
 (3(=DDE DD (3=CDC | B,/^C/^D-) D2- !breath!D!<(!(C | B,C EE FF!<)! | G3 F G) z | %11
w: Chas- cun est prest de la _ _|loü- * er. _ _ Qui|se pour- roit d'el- le las-|ser? _ _|
!mf! (G/A/G) (G/A/G) (G/B/G- | G2 E) z z2 |!p! z2 z/ (.c/.B/.A/ .G/.G/.A/.B/ | %14
w: Tous- * jours sa beau- té re- nou- vel-|* le.|Dieu qu'il la fait bon re- gar-|
 (B/A/G/F/)) (G>!>(!F ED |!p! =DD!>)!!<(! C2 ^D!<)!(3D/E/D/ |!>(! D2!>)! C4) | %17
w: der, _ _ _ La _ gra- ci-|eu- se bonne et _ _ _|bel- le!|
!pp!!pp!!p! ^B,>!<(!(!tenuto!A, B,)!<)!A,/!<(!(!tenuto!A,/ B,>)!<)!!<(!(B,!<)! | %18
w: Par de ça, ne de là, la|
!p! D4)"^cresc." (^B,2 | ^E2 DE (3FDF | F2 F) (F/=E/ D/E/ F/G/ |!mf! =A/G/F/E/ D/E/F/G/ A/G/ F/E/ | %22
w: mer Ne|scay da- me ne da- moi-|sel- le Qui _ soit _ en _|tous _ _ _ bien _ _ _ par- * fais _|
!p! (E2 D2)) (!tenuto!D!tenuto!E |!<(! !tenuto!C2 !tenuto!B,!tenuto!C!<)! !tenuto!E!>(!!tenuto!D | %24
w: tel- le. C'est ung|son- ge que d'i pen-|
!p! (C2!>)! ^B,2)) (C2 | E (3D/E/D/ CF E (3D/E/D/ |!p! C2)"^più" z2 (A2 |!pp! G F/G/ AA G F/E/ | %28
w: ser: _ Dieu!|qu'il la _ _ fait bon re- gar- * *|der! Dieu!|qu'il la _ fait bon re- gar- *|
 !fermata!F6) |] %29
w: der!|
V:3
!mf! z2!>(! (!tenuto!A4!>)! |!p! cB A (3A/B/A/ c (3B/c/B/ | A4)!<(! (A2 | %3
w: Dieu!|qu'il la fait bon _ _ re- gar- * *|der La|
 B (3B/c/d/ e (3d/!<)!e/d/!>(! c>B!>)! | BA/G/ F2) z2 |!p! z2 z (=A =cA | =AA- (3AAA FA | %7
w: gra- ci- * * eu- se _ _ bonne et|bel- * * le;|Pour les gran|biens que _ sont en el- *|
 F2) z (=A =cA | =A^c ^dc !breath!A)!<(!(^A | GA B>d c>!<)!e |!mf! d4) (3(ded | %11
w: le Chas- cun est|prest de la loü- er. Qui|se pour- roit d'el- le las-|ser? Tous- * *|
 e) (3(d/e/d/ e) (3(d/e/d/ e) (3(d/e/d/ | e2 c) z z2 |!p! z2 z2 (c2 | f e/d/) (e>!>(!d cB | %15
w: jours sa _ _ beau- té _ _ re- nou- * *|vel- le.|re-|gar- der, _ La _ gra- ci-|
!p! _BB!>)!!<(! =A2 =B!<)!(3B/c/B/ |!>(! B2!>)! =A4) | %17
w: eu- se bonne et _ _ _|bel- le!|
!pp!!pp!!p! G>!<(!(!tenuto!F!<)! G)F/!<(!(!tenuto!F/ G>)!<)!(G |!p!!<(! ^B4)"^cresc." (d2!<)! | %19
w: Par de ça, ne de là, la|mer Ne|
 ^B2 cB (3AcA | A^B/c/ d) z z2 |!mf! z (c/B/ =A/B/ c/d/ e/d/ c/B/ |!p! =A2 A2) (AA | %23
w: scay da- me ne da- moi-|sel- * * le|Qui soit en tous bien _ par- * fais _|tel- le. C'est ung|
!<(! =A2 AA!<)! A!>(!A!>)! |!p! =A4) (^A2 | cB A (3A/B/A/ c (3B/c/B/ |"^più"!p! A2) (!tenuto!f4 | %27
w: son- ge que d'i pen-|ser: Dieu!|qu'il la fait bon _ _ re- gar- * *|der! Dieu!|
!pp! c d/e/ f/e/ d/c/ B A/G/ | !fermata!A6) |] %29
w: qu'il la _ fait * bon * re- gar- *|der!|
V:4
!mf! z2!>(! (!tenuto!F,4!>)! |!p! C,C, F,F, C, D,/E,/ | F,4)!<(! (F,2 | %3
w: Dieu!|qu'il la fait bon re- gar- *|der La|
 E,D, C,2-!<)!!>(! C,/C,/D,/!>)!E,/ | F,2- F,E,/D,/ C,F,) |!p! z2 (F,2 =A,F, | F,>B, C>B, =A,C | %7
w: gra- ci- eu- * se bonne et|bel- * * * * le;|Pour les gran|biens que sont en el- *|
 =A,2) z (F, A,F, | F,>=A, B,>A, !breath!F,)!<(!(F, | G,F, E,C, F,D,!<)! |!mf! G,4) z (G, | %11
w: le Chas- cun est|prest de la loü- er. Qui|se pour- roit d'el- le las-|ser? Tous-|
 C,G, CG, C,G, | C2 C) z z2 | z6 |!p! z2 (!tenuto!CA,!>(! G,F, | %15
w: jours sa beau- té re- nou-|vel- le.||La _ gra- ci-|
!p! =F,E,!>)!!<(! D,2 ^F,!<)!(3F,/=A,/F,/ |!>(! F,2!>)! D,4) | %17
w: eu- se bonne et _ _ _|bel- le!|
!pp!!pp!!p! D,>!<(!(!tenuto!G,, D,)!<)!G,,/!<(!(!tenuto!G,,/ D,>)!<)!(D, | %18
w: Par de ça, ne de là, la|
!p!!<(! F,4)"^cresc." (F,2!<)! | G,2 A,G, (3F,A,F, | D,2- D,) (=A,/G,/ F,/G,/ A,/B,/ | %21
w: mer Ne|scay da- me ne da- moi-|sel- le Qui _ soit _ en _|
!mf! C/B,/=A,/G,/ F,/G,/A,/B,/ C/B,/ A,/G,/ |!p! F,2 F,2) (B,,C, |!<(! E,2 D,E,!<)! G,!>(!F, | %24
w: tous _ _ _ bien _ _ _ par- * fais _|tel- le. C'est ung|son- ge que d'i pen-|
!p! (E,2!>)! D,2)) (F,2 | C,C, F,F, C, D,/E,/ | F,2) z2 z2 |!pp! z2 z (D, E,C, | !fermata!F,,6) |] %29
w: ser: _ Dieu!|qu'il la fait bon re- gar- *|der!|bon re- gar-|der!|

